X:374
T:Moj Dilbere
Z:Jack Campin, http://www.campin.me.uk/
F:Jack Campin's Nine-Note Tunebook
% last edit 03-02-2013
S:Muhamed Zero, Sevdah Bosnjaka, Sarajevo 1995
G:Bosnian Sevdah song
M:4/4
L:1/8
Q:1/4=90
K:EPhr
    "E" ^G2 A2 B2 (3cBA|"E"B8         |       \
    "Am" c3  B c2   d2 |"E"B3 c B2  A2|       \
    "Dm"^G3  B AG   F2 |"E"E8        ||
  |:"E"  B3  c d2   c2 |"E"B3 c B2 A^G|"Dm"F6 \
E2|      D3  E FE  ^GF |"E"E8        :|

